X:220
T:Sweet Home
A:Wyresdale, Lancashire
B:E and J Winder, 1835-41
L:1/4
M:C|
N:this is what's written, honest
O:England
Z:Richard Robinson 
%%TUNEURL: http://www.leeds.ac.uk/music/Info/RRTuneBk/gettune/00000ea8.html
%%ID:00000ea8
K:G
G>AB2 | ccd2 | BdcB | cAc2 | G>Ac2 | c>cd2 | Bd(cB) | cAG2 ::
zdg2 | fed2 | Bdc2 | cAB2 | zdg2 | fed2 | BdcB | (cA)G2 |\
B2c2 | e2B2 | A4 |\
zfg2 | fee2 | Bde2 | cAG2 ::
